img/apple-pay.svg

<?xml version="1.0" encoding="utf-8"?>
<!-- Generator: Adobe Illustrator 21.1.0, SVG Export Plug-In . SVG Version: 6.00 Build 0)  -->
<svg version="1.1" id="Artwork" xmlns="http://www.w3.org/2000/svg" xmlns:xlink="http://www.w3.org/1999/xlink" x="0px" y="0px"
	 width="165.52107px" height="105.9651px" viewBox="0 0 165.52107 105.9651" enable-background="new 0 0 165.52107 105.9651"
	 xml:space="preserve">
<g>
	<path id="XMLID_4_" d="M150.69807,0H14.82318c-0.5659,0-1.1328,0-1.69769,0.0033c-0.47751,0.0034-0.95391,0.0087-1.43031,0.0217
		c-1.039,0.0281-2.0869,0.0894-3.1129,0.2738c-1.0424,0.1876-2.0124,0.4936-2.9587,0.9754
		c-0.9303,0.4731-1.782,1.0919-2.52009,1.8303c-0.73841,0.7384-1.35721,1.5887-1.83021,2.52
		c-0.4819,0.9463-0.7881,1.9166-0.9744,2.9598c-0.18539,1.0263-0.2471,2.074-0.2751,3.1119
		c-0.0128,0.4764-0.01829,0.9528-0.0214,1.4291c-0.0033,0.5661-0.0022,1.1318-0.0022,1.6989V91.142
		c0,0.5671-0.0011,1.13181,0.0022,1.69901c0.00311,0.4763,0.0086,0.9527,0.0214,1.4291
		c0.028,1.03699,0.08971,2.08469,0.2751,3.11069c0.1863,1.0436,0.4925,2.0135,0.9744,2.9599
		c0.473,0.9313,1.0918,1.7827,1.83021,2.52c0.73809,0.7396,1.58979,1.3583,2.52009,1.8302
		c0.9463,0.4831,1.9163,0.7892,2.9587,0.9767c1.026,0.1832,2.0739,0.2456,3.1129,0.2737c0.4764,0.0108,0.9528,0.0172,1.43031,0.0194
		c0.56489,0.0044,1.13179,0.0044,1.69769,0.0044h135.87489c0.5649,0,1.13181,0,1.69659-0.0044
		c0.47641-0.0022,0.95282-0.0086,1.4314-0.0194c1.0368-0.0281,2.0845-0.0905,3.11301-0.2737
		c1.041-0.1875,2.0112-0.4936,2.9576-0.9767c0.9313-0.4719,1.7805-1.0906,2.52011-1.8302c0.7372-0.7373,1.35599-1.5887,1.8302-2.52
		c0.48299-0.9464,0.78889-1.9163,0.97429-2.9599c0.1855-1.026,0.2457-2.0737,0.2738-3.11069
		c0.013-0.4764,0.01941-0.9528,0.02161-1.4291c0.00439-0.5672,0.00439-1.1319,0.00439-1.69901V14.8242
		c0-0.5671,0-1.1328-0.00439-1.6989c-0.0022-0.4763-0.00861-0.9527-0.02161-1.4291c-0.02811-1.0379-0.0883-2.0856-0.2738-3.1119
		c-0.18539-1.0432-0.4913-2.0135-0.97429-2.9598c-0.47421-0.9313-1.093-1.7816-1.8302-2.52
		c-0.73961-0.7384-1.58881-1.3572-2.52011-1.8303c-0.9464-0.4818-1.9166-0.7878-2.9576-0.9754
		c-1.0285-0.1844-2.0762-0.2457-3.11301-0.2738c-0.47858-0.013-0.95499-0.0183-1.4314-0.0217C151.82988,0,151.26297,0,150.69807,0
		L150.69807,0z"/>
	<path id="XMLID_3_" fill="#FFFFFF" d="M150.69807,3.532l1.67149,0.0032c0.4528,0.0032,0.90561,0.0081,1.36092,0.0205
		c0.79201,0.0214,1.71849,0.0643,2.58209,0.2191c0.7507,0.1352,1.38029,0.3408,1.9845,0.6484
		c0.5965,0.3031,1.14301,0.7003,1.62019,1.1768c0.479,0.4797,0.87671,1.0271,1.18381,1.6302
		c0.30589,0.5995,0.51019,1.2261,0.64459,1.9823c0.1544,0.8542,0.1971,1.7832,0.21881,2.5801
		c0.01219,0.4498,0.01819,0.8996,0.0204,1.3601c0.00429,0.5569,0.0042,1.1135,0.0042,1.6715V91.142
		c0,0.558,0.00009,1.1136-0.0043,1.6824c-0.00211,0.4497-0.0081,0.8995-0.0204,1.3501c-0.02161,0.7957-0.0643,1.7242-0.2206,2.5885
		c-0.13251,0.7458-0.3367,1.3725-0.64429,1.975c-0.30621,0.6016-0.70331,1.1484-1.18022,1.6251
		c-0.47989,0.48-1.0246,0.876-1.62819,1.1819c-0.5997,0.3061-1.22821,0.51151-1.97151,0.6453
		c-0.88109,0.157-1.84639,0.2002-2.57339,0.2199c-0.4574,0.0103-0.9126,0.01649-1.37889,0.0187
		c-0.55571,0.0043-1.1134,0.0042-1.6692,0.0042H14.82318c-0.0074,0-0.0146,0-0.0221,0c-0.5494,0-1.0999,0-1.6593-0.0043
		c-0.4561-0.00211-0.9112-0.0082-1.3512-0.0182c-0.7436-0.0201-1.7095-0.0632-2.5834-0.2193
		c-0.74969-0.1348-1.3782-0.3402-1.9858-0.6503c-0.59789-0.3032-1.1422-0.6988-1.6223-1.1797
		c-0.4764-0.4756-0.8723-1.0207-1.1784-1.6232c-0.3064-0.6019-0.5114-1.2305-0.64619-1.9852
		c-0.15581-0.8626-0.19861-1.7874-0.22-2.5777c-0.01221-0.4525-0.01731-0.9049-0.02021-1.3547l-0.0022-1.3279l0.0001-0.3506V14.8242
		l-0.0001-0.3506l0.0021-1.3251c0.003-0.4525,0.0081-0.9049,0.02031-1.357c0.02139-0.7911,0.06419-1.7163,0.22129-2.5861
		c0.1336-0.7479,0.3385-1.3765,0.6465-1.9814c0.3037-0.5979,0.7003-1.1437,1.17921-1.6225
		c0.477-0.4772,1.02309-0.8739,1.62479-1.1799c0.6011-0.3061,1.2308-0.5116,1.9805-0.6465c0.8638-0.1552,1.7909-0.198,2.5849-0.2195
		c0.4526-0.0123,0.9052-0.0172,1.3544-0.0203l1.6771-0.0033H150.69807"/>
	<g>
		<g>
			<path d="M45.1862,35.64053c1.41724-1.77266,2.37897-4.15282,2.12532-6.58506c-2.07464,0.10316-4.60634,1.36871-6.07207,3.14276
				c-1.31607,1.5192-2.4809,3.99902-2.17723,6.3293C41.39111,38.72954,43.71785,37.36345,45.1862,35.64053"/>
			<path d="M47.28506,38.98252c-3.38211-0.20146-6.25773,1.91951-7.87286,1.91951c-1.61602,0-4.08931-1.81799-6.76438-1.76899
				c-3.48177,0.05114-6.71245,2.01976-8.4793,5.15079c-3.63411,6.2636-0.95904,15.55471,2.57494,20.65606
				c1.71618,2.5238,3.78447,5.30269,6.50976,5.20287c2.57494-0.10104,3.58421-1.66732,6.71416-1.66732
				c3.12765,0,4.03679,1.66732,6.76252,1.61681c2.82665-0.05054,4.59381-2.52506,6.30997-5.05132
				c1.96878-2.877,2.77473-5.65498,2.82542-5.80748c-0.0507-0.05051-5.45058-2.12204-5.50065-8.33358
				c-0.05098-5.20101,4.23951-7.6749,4.44144-7.82832C52.3832,39.4881,48.5975,39.08404,47.28506,38.98252"/>
		</g>
		<g>
			<path d="M76.73385,31.94381c7.35096,0,12.4697,5.06708,12.4697,12.44437c0,7.40363-5.22407,12.49704-12.65403,12.49704h-8.13892
				v12.94318h-5.88037v-37.8846H76.73385z M68.41059,51.9493h6.74732c5.11975,0,8.0336-2.75636,8.0336-7.53479
				c0-4.77792-2.91385-7.50845-8.00727-7.50845h-6.77365V51.9493z"/>
			<path d="M90.73997,61.97864c0-4.8311,3.70182-7.79761,10.26583-8.16526l7.56061-0.44614v-2.12639
				c0-3.07185-2.07423-4.90959-5.53905-4.90959c-3.28251,0-5.33041,1.57492-5.82871,4.04313h-5.35574
				c0.31499-4.98859,4.56777-8.66407,11.3941-8.66407c6.69466,0,10.97377,3.54432,10.97377,9.08388v19.03421h-5.43472v-4.54194
				h-0.13065c-1.60125,3.07185-5.09341,5.01441-8.71623,5.01441C94.52078,70.30088,90.73997,66.94038,90.73997,61.97864z
				 M108.56641,59.4846v-2.17905l-6.8,0.41981c-3.38683,0.23649-5.30306,1.73291-5.30306,4.09579
				c0,2.41504,1.99523,3.99046,5.04075,3.99046C105.46823,65.81161,108.56641,63.08108,108.56641,59.4846z"/>
			<path d="M119.34167,79.9889v-4.5946c0.4193,0.10483,1.36425,0.10483,1.83723,0.10483c2.6252,0,4.04313-1.10245,4.90908-3.9378
				c0-0.05267,0.49931-1.68025,0.49931-1.70658l-9.97616-27.64562h6.14268l6.98432,22.47371h0.10432l6.98433-22.47371h5.9857
				l-10.34483,29.06304c-2.36186,6.69517-5.0924,8.84789-10.81577,8.84789C121.17891,80.12006,119.76098,80.06739,119.34167,79.9889
				z"/>
		</g>
	</g>
</g>
<g>
</g>
<g>
</g>
<g>
</g>
<g>
</g>
<g>
</g>
<g>
</g>
</svg>

<?xml version="1.0" encoding="UTF-8" standalone="no"?> <!-- Created with Vectornator for iOS (http://vectornator.io/) --><!DOCTYPE svg PUBLIC "-//W3C//DTD SVG 1.1//EN" "http://www.w3.org/Graphics/SVG/1.1/DTD/svg11.dtd">
<svg style="fill-rule:evenodd;clip-rule:evenodd;stroke-linecap:round;stroke-linejoin:round;" xmlns:vectornator="http://vectornator.io" xmlns:xlink="http://www.w3.org/1999/xlink" xmlns="http://www.w3.org/2000/svg" xml:space="preserve" version="1.1" viewBox="0 0 165.521 105.965">
<metadata>
<vectornator:setting key="DynamicGuides" value="1"/>
<vectornator:setting key="Units" value="Pixels"/>
<vectornator:setting key="GridSpacing" value="36"/>
<vectornator:setting key="SnapToGuides" value="1"/>
<vectornator:setting key="RulersVisible" value="1"/>
</metadata>
<defs/>
<g id="Untitled" vectornator:layerName="Untitled">
<g opacity="1">
<path d="M150.698+4.84288e-06L14.8232+4.84288e-06C14.2573+4.84288e-06+13.6904+4.84288e-06+13.1255+0.00330484C12.648+0.00670484+12.1716+0.0120048+11.6952+0.0250048C10.6562+0.0531048+9.60828+0.114405+8.58228+0.298805C7.53988+0.486405+6.56988+0.792405+5.62358+1.2742C4.69328+1.7473+3.84158+2.3661+3.10349+3.1045C2.36508+3.8429+1.74628+4.6932+1.27328+5.6245C0.791376+6.5708+0.485176+7.5411+0.298876+8.5843C0.113486+9.6106+0.051776+10.6583+0.023776+11.6962C0.010976+12.1726+0.005486+12.649+0.002376+13.1253C-0.000924+13.6914+0.000176+14.2571+0.000176+14.8242L0.000176+91.142C0.000176+91.7091-0.000924+92.2738+0.002376+92.841C0.005486+93.3173+0.010976+93.7937+0.023776+94.2701C0.051776+95.3071+0.113486+96.3548+0.298876+97.3808C0.485176+98.4244+0.791376+99.3943+1.27328+100.341C1.74628+101.272+2.36508+102.123+3.10349+102.861C3.84158+103.6+4.69328+104.219+5.62358+104.691C6.56988+105.174+7.53988+105.48+8.58228+105.668C9.60828+105.851+10.6562+105.913+11.6952+105.941C12.1716+105.952+12.648+105.959+13.1255+105.961C13.6904+105.965+14.2573+105.965+14.8232+105.965L150.698+105.965C151.263+105.965+151.83+105.965+152.395+105.961C152.871+105.959+153.347+105.952+153.826+105.941C154.863+105.913+155.911+105.851+156.939+105.668C157.98+105.48+158.95+105.174+159.897+104.691C160.828+104.219+161.677+103.6+162.417+102.861C163.154+102.123+163.773+101.272+164.247+100.341C164.73+99.3943+165.036+98.4244+165.221+97.3808C165.407+96.3548+165.467+95.3071+165.495+94.2701C165.508+93.7937+165.514+93.3173+165.517+92.841C165.521+92.2738+165.521+91.7091+165.521+91.142L165.521+14.8242C165.521+14.2571+165.521+13.6914+165.517+13.1253C165.514+12.649+165.508+12.1726+165.495+11.6962C165.467+10.6583+165.407+9.6106+165.221+8.5843C165.036+7.5411+164.73+6.5708+164.247+5.6245C163.773+4.6932+163.154+3.8429+162.417+3.1045C161.677+2.3661+160.828+1.7473+159.897+1.2742C158.95+0.792404+157.98+0.486404+156.939+0.298804C155.911+0.114404+154.863+0.0531045+153.826+0.0250045C153.347+0.0120045+152.871+0.00670449+152.395+0.00330449C151.83+4.84288e-06+151.263+4.84288e-06+150.698+4.84288e-06L150.698+4.84288e-06Z" opacity="1" fill="#000000"/>
<path d="M150.698+3.532L152.37+3.5352C152.822+3.5384+153.275+3.5433+153.73+3.5557C154.522+3.5771+155.449+3.62+156.313+3.7748C157.063+3.91+157.693+4.1156+158.297+4.4232C158.894+4.7263+159.44+5.1235+159.917+5.6C160.396+6.0797+160.794+6.6271+161.101+7.2302C161.407+7.8297+161.611+8.4563+161.746+9.2125C161.9+10.0667+161.943+10.9957+161.964+11.7926C161.977+12.2424+161.983+12.6922+161.985+13.1527C161.989+13.7096+161.989+14.2662+161.989+14.8242L161.989+91.142C161.989+91.7+161.989+92.2556+161.985+92.8244C161.983+93.2741+161.977+93.7239+161.964+94.1745C161.943+94.9702+161.9+95.8987+161.744+96.763C161.611+97.5088+161.407+98.1355+161.099+98.738C160.793+99.3396+160.396+99.8864+159.919+100.363C159.439+100.843+158.895+101.239+158.291+101.545C157.691+101.851+157.063+102.057+156.32+102.19C155.438+102.347+154.473+102.391+153.746+102.41C153.289+102.421+152.834+102.427+152.367+102.429C151.812+102.433+151.254+102.433+150.698+102.433L14.8232+102.433C14.8158+102.433+14.8086+102.433+14.8011+102.433C14.2517+102.433+13.7012+102.433+13.1418+102.429C12.6857+102.427+12.2306+102.421+11.7906+102.411C11.047+102.391+10.0811+102.347+9.20718+102.191C8.45749+102.057+7.82898+101.851+7.22138+101.541C6.62349+101.238+6.07918+100.842+5.59908+100.361C5.12268+99.8857+4.72678+99.3406+4.42068+98.7381C4.11428+98.1362+3.90928+97.5076+3.77449+96.7529C3.61868+95.8903+3.57588+94.9655+3.55449+94.1752C3.54228+93.7227+3.53718+93.2703+3.53428+92.8205L3.53208+91.4926L3.53218+91.142L3.53218+14.8242L3.53208+14.4736L3.53418+13.1485C3.53718+12.696+3.54228+12.2436+3.55449+11.7915C3.57588+11.0004+3.61868+10.0752+3.77578+9.2054C3.90938+8.4575+4.11428+7.8289+4.42228+7.224C4.72598+6.6261+5.12258+6.0803+5.60149+5.6015C6.07849+5.1243+6.62458+4.7276+7.22628+4.4216C7.82738+4.1155+8.45708+3.91+9.20678+3.7751C10.0706+3.6199+10.9977+3.5771+11.7917+3.5556C12.2443+3.5433+12.6969+3.5384+13.1461+3.5353L14.8232+3.532L150.698+3.532" opacity="1" fill="#FAEBD7"/>
<g opacity="1">
<g opacity="1">
<path d="M45.1862+35.6405C46.6034+33.8679+47.5652+31.4877+47.3115+29.0555C45.2369+29.1586+42.7052+30.4242+41.2394+32.1982C39.9234+33.7174+38.7585+36.1973+39.0622+38.5275C41.3911+38.7295+43.7178+37.3635+45.1862+35.6405" opacity="1" fill="#000000"/>
<path d="M47.2851+38.9825C43.9029+38.7811+41.0273+40.902+39.4122+40.902C37.7962+40.902+35.3229+39.084+32.6478+39.133C29.166+39.1842+25.9354+41.1528+24.1685+44.2838C20.5344+50.5474+23.2095+59.8385+26.7435+64.9399C28.4596+67.4637+30.5279+70.2426+33.2532+70.1428C35.8282+70.0417+36.8374+68.4754+39.9674+68.4754C43.095+68.4754+44.0042+70.1428+46.7299+70.0923C49.5565+70.0417+51.3237+67.5672+53.0399+65.0409C55.0086+62.1639+55.8146+59.386+55.8653+59.2335C55.8146+59.1829+50.4147+57.1114+50.3646+50.8999C50.3137+45.6989+54.6041+43.225+54.8061+43.0716C52.3832+39.4881+48.5975+39.084+47.2851+38.9825" opacity="1" fill="#000000"/>
</g>
<g opacity="1">
<path d="M76.7338+31.9438C84.0848+31.9438+89.2035+37.0109+89.2035+44.3882C89.2035+51.7918+83.9795+56.8852+76.5495+56.8852L68.4106+56.8852L68.4106+69.8284L62.5302+69.8284L62.5302+31.9438C62.5302+31.9438+76.7338+31.9438+76.7338+31.9438ZM68.4106+51.9493L75.1579+51.9493C80.2777+51.9493+83.1915+49.1929+83.1915+44.4145C83.1915+39.6366+80.2777+36.9061+75.1842+36.9061L68.4106+36.9061L68.4106+51.9493Z" opacity="1" fill="#000000"/>
<path d="M90.74+61.9786C90.74+57.1475+94.4418+54.181+101.006+53.8134L108.566+53.3672L108.566+51.2409C108.566+48.169+106.492+46.3313+103.027+46.3313C99.7448+46.3313+97.6969+47.9062+97.1986+50.3744L91.8429+50.3744C92.1579+45.3858+96.4107+41.7103+103.237+41.7103C109.932+41.7103+114.211+45.2546+114.211+50.7942L114.211+69.8284L108.776+69.8284L108.776+65.2865L108.645+65.2865C107.044+68.3583+103.552+70.3009+99.9292+70.3009C94.5208+70.3009+90.74+66.9404+90.74+61.9786ZM108.566+59.4846L108.566+57.3056L101.766+57.7254C98.3796+57.9619+96.4633+59.4583+96.4633+61.8212C96.4633+64.2362+98.4586+65.8116+101.504+65.8116C105.468+65.8116+108.566+63.0811+108.566+59.4846Z" opacity="1" fill="#000000"/>
<path d="M119.342+79.9889L119.342+75.3943C119.761+75.4991+120.706+75.4991+121.179+75.4991C123.804+75.4991+125.222+74.3967+126.088+71.5613C126.088+71.5087+126.587+69.8811+126.587+69.8548L116.611+42.2091L122.754+42.2091L129.738+64.6828L129.842+64.6828L136.827+42.2091L142.812+42.2091L132.468+71.2722C130.106+77.9673+127.375+80.1201+121.652+80.1201C121.179+80.1201+119.761+80.0674+119.342+79.9889Z" opacity="1" fill="#000000"/>
</g>
</g>
</g>
</g>
</svg>
